packages/ffe-icons/icons/filled/md/space_dashboard.svg

<svg xmlns="http://www.w3.org/2000/svg" height="24" viewBox="0 -960 960 960" width="24"><path d="M212.309-140.001q-29.827 0-51.067-21.241-21.241-21.24-21.241-51.067v-535.382q0-29.827 21.241-51.067 21.24-21.241 51.067-21.241h165.385q29.826 0 51.066 21.241 21.241 21.24 21.241 51.067v535.382q0 29.827-21.241 51.067-21.24 21.241-51.066 21.241H212.309Zm369.997 0q-29.826 0-51.066-21.241-21.241-21.24-21.241-51.067v-195.384q0-29.827 21.241-51.067Q552.48-480 582.306-480h165.385q29.827 0 51.067 21.24 21.241 21.24 21.241 51.067v195.384q0 29.827-21.241 51.067-21.24 21.241-51.067 21.241H582.306Zm0-399.998q-29.826 0-51.066-21.24-21.241-21.24-21.241-51.067v-135.385q0-29.827 21.241-51.067 21.24-21.241 51.066-21.241h165.385q29.827 0 51.067 21.241 21.241 21.24 21.241 51.067v135.385q0 29.827-21.241 51.067-21.24 21.24-51.067 21.24H582.306Z"/></svg>

<svg xmlns="http://www.w3.org/2000/svg" height="24" viewBox="0 -960 960 960" width="24"><path d="M212.31-140q-29.83 0-51.07-21.24Q140-182.48 140-212.31v-535.38q0-29.83 21.24-51.07Q182.48-820 212.31-820h165.38q29.83 0 51.07 21.24Q450-777.52 450-747.69v535.38q0 29.83-21.24 51.07Q407.52-140 377.69-140H212.31Zm370 0q-29.83 0-51.07-21.24Q510-182.48 510-212.31v-195.38q0-29.83 21.24-51.07Q552.48-480 582.31-480h165.38q29.83 0 51.07 21.24Q820-437.52 820-407.69v195.38q0 29.83-21.24 51.07Q777.52-140 747.69-140H582.31Zm0-400q-29.83 0-51.07-21.24Q510-582.48 510-612.31v-135.38q0-29.83 21.24-51.07Q552.48-820 582.31-820h165.38q29.83 0 51.07 21.24Q820-777.52 820-747.69v135.38q0 29.83-21.24 51.07Q777.52-540 747.69-540H582.31Z"/></svg>
